X:1
T:Title
%%score { ( 1 3 ) | ( 2 4 ) }
L:1/8
Q:1/4=100
M:4/4
K:Ab
V:1 treble nm="Grand Piano"
V:3 treble 
V:2 bass 
V:4 bass 
V:1
 [Ec]>[Fd] [Ec][DB] [CA]2 [CE]2 | [DF]4 [FA]4 | G>_G =GA B2 c2 | B6 z2 | %4
w: J.~M.~Harris * * * * *||||
 [Ec]>[Fd] [Ec][DB] [CA]2 [CE]2 | [DF]4 [Fd]4 | c>B AB c2 B2 |[M:3/4] [CEA]6 |[M:1/4] cd | %9
w: |||||
[M:4/4] e4 z4 | d4 z4 | c3 c Be[Ae][A=d] |[M:7/8] e-e-e- e- e3 |[M:1/4] cd |[M:4/4] e4 z4 | d4 z4 | %16
w: |||||||
 [Ee]>[Ec] [EA][FB] [Ec]2 [DB]2 | [CA]6 z2 |] %18
w: ||
V:2
 [A,,A,]>[A,,A,] [A,,A,][A,,A,] [A,,A,]2 [A,,A,]2 | [D,A,]4 [D,D]4 | %2
 [E,B,E]>[E,=A,E] [E,B,E][E,CE] [E,G,E]2 [E,A,E]2 | [E,G,E]2 [F,A,]2 [G,B,]2 [E,G,]2 | %4
 [A,,A,]>[A,,A,] [A,,A,][A,,A,] [A,,A,]2 [A,,A,]2 | [D,A,]4 [D,A,]4 | %6
 [E,A,E]>[E,DE] [E,CE][E,G,E] [E,A,E]2 [E,DE]2 |[M:3/4] A,,6 |[M:1/4] [A,E]2 | %9
[M:4/4][K:treble] [A,CA]2 [A,C]>[A,DA] [A,CA][A,F][K:bass] [A,E]2 | %10
 [E,B,E]2 [E,B,]>[E,CE] [E,B,E][E,A,E] [E,G,E]2 | [A,E]3 [A,E] [G,B,E][G,B,E][F,B,][B,,B,] | %12
[M:7/8] B,2 z z z z2 |[M:1/4][K:treble] [A,E]2 | %14
[M:4/4] [A,CA]2 [A,C]>[A,DA] [A,CA][A,F][K:bass] [A,E]2 | %15
 [E,B,E]2 [E,B,]>[E,CE] [E,B,E][E,A,E] [E,G,E]2 | [C,A,]>[A,,A,] [C,A,][D,A,] [E,A,]2 [E,G,]2 | %17
 [A,,A,]6 z2 |] %18
V:3
 x8 | x8 | x8 | z2 G2 F2 E2 | x8 | x8 | x8 |[M:3/4] x6 |[M:1/4] x2 |[M:4/4] z2 A>f ed c2 | %10
 z2 E>e dc B2 | x8 |[M:7/8] G2 A2 B3 |[M:1/4] x2 |[M:4/4] z2 A>f ed c2 | z2 E>e dc B2 | x8 | x8 |] %18
V:4
 x8 | x8 | x8 | x8 | x8 | x8 | x8 |[M:3/4] x6 |[M:1/4] z B, |[M:4/4][K:treble] x6[K:bass] x2 | x8 | %11
 x8 |[M:7/8] E,2- [E,-C]2 [E,D]3 |[M:1/4][K:treble] z B, |[M:4/4] x6[K:bass] x2 | x8 | x8 | x8 |] %18

